svg/fluentui-system-icons/ic_fluent_cloud_arrow_up_32_regular.svg

<svg width="32" height="32" viewBox="0 0 32 32" fill="none" xmlns="http://www.w3.org/2000/svg">
<path d="M11.399 7.00824C10.4385 8.18213 10 9.70007 10 11C10 11.5523 9.55228 12 9 12C5.37634 12 4 14.5283 4 16C4 16.8548 4.21608 17.8355 4.87758 18.5915C5.51523 19.3202 6.70748 20 9 20H13.8518C13.667 20.6402 13.5515 21.3097 13.5137 22H9C6.29252 22 4.48477 21.1798 3.37242 19.9085C2.28392 18.6645 2 17.1452 2 16C2 13.6444 3.93089 10.4699 8.05688 10.0472C8.22868 8.59142 8.79636 7.03082 9.85104 5.74176C11.1661 4.13445 13.2003 3 16 3C17.7001 3 19.6821 3.5615 21.2582 4.85104C22.6793 6.01369 23.7307 7.73841 23.9553 10.0573C25.333 10.2223 26.6687 10.7404 27.7362 11.5647C29.0629 12.5892 30 14.114 30 16C30 16.4631 29.9593 16.912 29.8762 17.342C29.3374 16.5729 28.6814 15.892 27.9341 15.3251C27.7606 14.4565 27.2525 13.7182 26.5138 13.1477C25.5771 12.4243 24.2961 12 23 12C22.4477 12 22 11.5523 22 11C22 8.7997 21.1344 7.33388 19.9918 6.39896C18.8179 5.4385 17.2999 5 16 5C13.7997 5 12.3339 5.86555 11.399 7.00824ZM30 22.5C30 18.3579 26.6421 15 22.5 15C18.3579 15 15 18.3579 15 22.5C15 26.6421 18.3579 30 22.5 30C26.6421 30 30 26.6421 30 22.5ZM22.2197 17.2197C22.5126 16.9268 22.9874 16.9268 23.2803 17.2197L27.2803 21.2197C27.5732 21.5126 27.5732 21.9874 27.2803 22.2803C26.9874 22.5732 26.5126 22.5732 26.2197 22.2803L23.5 19.5607V27.25C23.5 27.6642 23.1642 28 22.75 28C22.3358 28 22 27.6642 22 27.25V19.5607L19.2803 22.2803C18.9874 22.5732 18.5126 22.5732 18.2197 22.2803C17.9268 21.9874 17.9268 21.5126 18.2197 21.2197L22.2197 17.2197Z" fill="#212121"/>
</svg>

<svg xmlns="http://www.w3.org/2000/svg" width="32" height="32"><path d="M11.399 7.008C10.439 8.182 10 9.7 10 11a1 1 0 0 1-1 1c-3.624 0-5 2.528-5 4 0 .855.216 1.835.878 2.591C5.515 19.322 6.708 20 9 20h4.852c-.185.64-.3 1.31-.338 2H9c-2.707 0-4.515-.82-5.628-2.091C2.284 18.665 2 17.145 2 16c0-2.356 1.93-5.53 6.057-5.953.172-1.456.74-3.016 1.794-4.305C11.166 4.134 13.201 3 16 3c1.7 0 3.682.562 5.258 1.851 1.421 1.163 2.473 2.887 2.697 5.206 1.378.165 2.714.683 3.781 1.508C29.063 12.589 30 14.114 30 16a7 7 0 0 1-.124 1.342 9.052 9.052 0 0 0-1.942-2.017c-.173-.868-.681-1.607-1.42-2.177C25.577 12.424 24.296 12 23 12a1 1 0 0 1-1-1c0-2.2-.866-3.666-2.008-4.601C18.818 5.439 17.3 5 16 5c-2.2 0-3.666.866-4.601 2.008ZM30 22.5a7.5 7.5 0 1 0-15 0 7.5 7.5 0 0 0 15 0Zm-7.78-5.28a.75.75 0 0 1 1.06 0l4 4a.75.75 0 1 1-1.06 1.06l-2.72-2.72v7.69a.75.75 0 0 1-1.5 0v-7.69l-2.72 2.72a.75.75 0 1 1-1.06-1.06l4-4Z"/></svg>
